!!!OTL: 728. Priester als Arzt.
!!!ARE: Europa, Mitteleuropa, Deutschland, Schlesien; Thueringen
!!!SCT: E0728
!!!TXL: @@DE
!!!YEM: Copyright 1995, estate of Helmut Schaffrath.
**kern	**text
*ICvox	*
*M2/4	*
*k[f#]	*
*G:	*
=1	=1
!LO:TX:a:t=Sehr mäßig.	!
!LO:TX:a:t=Aus Schleſien u. Thüringen.	!
8r	.
{16d	Gu-
16f#	-ten
8g	A-
8a	-bend,
=2	=2
4b/	lie-
4a	-bes
=3	=3
8g}	Kind!
{16a	gu-
16a	-ten
8b	A-
16ccL	-bend,
16eeJ	.
=4	=4
4dd	lie-
4cc	-bes
=5	=5
4b	Kind!
8r}	.
{16b	Freut
16b	mich
=6	=6
8dd	ſehr,
8b	daß
16ddL	ich
16ccJ	.
8a	dich
=7	=7
8b}	find,
{16g	freut
16g	mich
8a	ſehr,
16ddL	daß
16ccJ	.
=8	=8
4b	ich
4a	dich
=9	=9
4g	find.
4r}	.
==	==
!!!AGN: Liebes - Lied, Leid, Klage; Gesang mit Pantomime
!!!ONB: ESAC (Essen Associative Code) Database: ERK2
!!!AMT: simple duple
!!!AIN: vox
!!!EED: Helmut Schaffrath
!!!EEV: 1.0
!!!GTL: Liebeslieder [Neuere (aus dem 18. bis 19. Jahrh.) - Liebesleid] 678-740
!!!URL-scan: https://rosdok.uni-rostock.de/mcrviewer/recordIdentifier/rosdok_ppn745177662/iview2/phys_0533.iview2?x=193.8995864193107&y=2083.4194393495563&scale=0.7029437510502773&rotation=0&layout=singlePageLayout
!!!ENC: Anna Maria Matuszewska
!!!EEV: 2024/12/16
*-	*-
